!!!SOCIAL_FUNCTION:	moccasin game songs
!!!PDT:	1913
!!!OTL: No_176.krn
!!!REG: Great_Lakes
!!!LANG: Non-Tone
!!!LING_GROUP: Algonquin
**kern	**kern
*staff2	*staff1
=1-	=1-
*clefF4	*clefF4
*k[b-e-]	*k[b-e-]
*M2/4	*M2/4
8GG^/	4f\
16r	.
16GG/	.
8GG^/	[4f\
16r	.
16GG/	.
=2	=2
2r	4f\]
.	4d\
=3	=3
2r	16B-\LK
.	8.B-\J
.	4B-\
=4	=4
2r	2B-\
=5	=5
2r	4f\
.	[4d\
=6	=6
2r	4d\]
.	16f\LK
.	8.d\J
=7	=7
2r	16B-\LK
.	8.B-\J
.	[4B-\
=8	=8
2r	2B-\]
=9	=9
2r	8.f\L
.	16d\Jk
.	16f\LK
.	8.B-\J
=10	=10
2r	4B-;\
.	4G\
=11	=11
2r	8.F\L
.	16F\Jk
.	[4F\
=12	=12
2r	4F\]
.	4D\
=13	=13
2r	16d\LK
.	8.B-\J
.	16G\LK
.	8.F\J
=14	=14
2r	8F\L
.	[8D\J
.	4D\]
=15	=15
2r	8.BB-/L
.	16BB-/Jk
.	4BB-/
=16	=16
2r	2BB-/
==	==
*-	*-
